Adwaita++/status/16/folder-visiting.svg

<svg height="16" width="16" xmlns="http://www.w3.org/2000/svg">
  <path d="m2 1s-.459-.014-.947.23c-.489.245-1.053.937-1.053 1.77v10s-.014.459.23.947c.246.489.938 1.053 1.77 1.053h12s.459.014.947-.23c.489-.245 1.053-.937 1.053-1.77v-8s.014-.459-.23-.947c-.245-.489-.937-1.053-1.77-1.053h-4.586l-1.707-1.707a1 1 0 0 0 -.707-.293zm0 2h4.586l1.707 1.707a1 1 0 0 0 .707.293h5v8h-12z" fill="#474747" fill-rule="evenodd"/>
</svg>

<svg xmlns="http://www.w3.org/2000/svg" width="16" height="16">
    <path d="M2 1s-.459-.014-.947.23C.564 1.475 0 2.167 0 3v10s-.014.459.23.947C.476 14.436 1.168 15 2 15h12s.459.014.947-.23C15.436 14.525 16 13.833 16 13V5s.014-.459-.23-.947C15.525 3.564 14.833 3 14 3H9.414L7.707 1.293A1 1 0 0 0 7 1zm0 2h4.586l1.707 1.707A1 1 0 0 0 9 5h5v8H2z" style="line-height:normal;font-variant-ligatures:normal;font-variant-position:normal;font-variant-caps:normal;font-variant-numeric:normal;font-variant-alternates:normal;font-feature-settings:normal;text-indent:0;text-align:start;text-decoration-line:none;text-decoration-style:solid;text-decoration-color:#000;text-transform:none;text-orientation:mixed;shape-padding:0;isolation:auto;mix-blend-mode:normal" color="#000" font-weight="400" font-family="sans-serif" white-space="normal" overflow="visible" fill="#474747" fill-rule="evenodd"/>
</svg>
